svg/justvector/blip.svg

<svg xmlns="http://www.w3.org/2000/svg" viewBox="0 0 100 100" enable-background="new 0 0 100 100"><path d="m5 84.32l6.549-6.55v-10.325l21.01 21h-10.326l-6.549 6.55-10.68-10.679m5.314-50.681v16.16c10.523 0 20.812 4.106 28.26 11.56 7.439 7.44 11.547 17.767 11.547 28.325h16.229c0-30.697-25.365-56.05-56.04-56.05m-.003-28.64v16.16c37.521 0 68.48 30.962 68.48 68.53h16.205c0-46.47-38.23-84.69-84.69-84.69"/></svg>

<?xml version="1.0" encoding="iso-8859-1"?>
<!-- Generator: Adobe Illustrator 15.0.0, SVG Export Plug-In . SVG Version: 6.00 Build 0)  -->
<!DOCTYPE svg PUBLIC "-//W3C//DTD SVG 1.1//EN" "http://www.w3.org/Graphics/SVG/1.1/DTD/svg11.dtd">
<svg version="1.1" id="Icons" xmlns="http://www.w3.org/2000/svg" xmlns:xlink="http://www.w3.org/1999/xlink" x="0px" y="0px"
	 width="100px" height="100px" viewBox="0 0 100 100" style="enable-background:new 0 0 100 100;" xml:space="preserve">
<path id="Blip" d="M5,84.321l6.549-6.55V67.446L32.555,88.45H22.229L15.68,95L5,84.321z M10.314,33.64v16.165
	c10.523,0,20.812,4.106,28.262,11.56c7.439,7.44,11.547,17.767,11.547,28.325h16.229C66.352,58.993,40.987,33.64,10.314,33.64z
	 M10.311,5v16.161c37.521,0,68.484,30.962,68.484,68.528H95C95,43.219,56.773,5,10.311,5z"/>
</svg>
